X:1
T:Ich will, Herr, preisen dich
T:Conrad Hagius
T:Source : Lobgesänge---Ursell---C.Sutorius---1606. Editor : André Vierendeels (24/05/17).
T:Notes : Original clefs C1, C3, C4 ,F4 Original note values have been halved Text Middle German (Confitebor tibi Domine, quoniam iratus es mihi) (Isaie 12)
T:Ich will, Herr, preisen dich
T:©
T:©
T:©
C:Conrad Hagius
Z:©
%%score [ 1 2 3 4 ]
L:1/8
Q:1/4=120
M:2/2
K:F
V:1 treble nm="Soprano" snm="S"
V:2 treble nm="Alto" snm="A"
V:3 treble-8 nm="Tenor" snm="T"
V:4 bass nm="Bass" snm="B"
V:1
"^1)" B4 B2 A2 | G2 G2 ^F4 | z4 G4 | A2 B2 A2 G2 | G2 ^F2 G4 | B4 B2 A2 | G2 G2 ^F4 | z4 G4 | %8
w: Ich will, Herr,|prei- sen dich,|und|lob dir sa- gen|je- der- frist,|denn dein grimm|wi- der mich,|bisz-|
w: Gott ist mein|heil und trost,|drauff|mein Hertz kan ver-|las- sen sich,|des- will ich|wol ge- trost|für|
 A2 B2 A2 G2 | G2 ^F2 G4 |: z4 G4 | G2 D2 F2 G2 | A4 A4 | B2 B2 c2 B2 | A2 G2 A4 | z4 d4 | %16
w: her ent- brandt ge-|we- sen ist,|der|hat sich nu ge-|stilt, dein|Zorn ist end- lich|ab- ge- than,|du|
w: kei- nem un- fal|schreck- en mich,|denn|zwar der Herr al-|lein, ist|mei- ne sterck und|ehr- en- zier|er|
 c2 B2 A2 G2 | F4 D4 | F4 G4 | A2 G2 G2 ^F2 | G8 :| %21
w: hast, O Her- re,|mild, dein|trost mir|wi- der- fah- ren|lahn.|
w: hat in nöt- then|mein, mit|gna- den|aus- ge holff'- en|mir.|
V:2
"^2)""^1)" G4 F2 F2 | D2 _E2 D4 | z4 D4 | F2 F2 F2 D2 | _E2 D2 D4 | G4 F2 F2 | D2 _E2 D4 | z4 D4 | %8
w: Ich will, Herr,|prei- sen dich,|und|lob dir sa- gen|je- der- frist,|denn dein grimm|wi- der mich,|bisz-|
w: Ihr werdt noch|wol- ge- mt,|zu|die- sem hei- land|kom- men ein,|und schöpff'- en|was- ser gut,|ausz|
 F2 F2 F2 D2 | _E2 D2 D4 |: z4 D4 | D2 B,2 C2 E2 | ^F4 F4 |"^-natural" G2 F2 A2 G2 | F2 D2 F4 | %15
w: her ent- brandt ge-|we- sen ist,|der|hat sich nu ge-|stilt, dein|Zorn ist end- lich|ab- ge- than,|
w: sei- ner gna- den|brun- nen rein,|Am|sel- ben tag für-|war, wer-|det ihr sa- gen|ins ge- mein|
 z4 D4 | A2 G2 F2 D2 | D4 z2 D2 | D6 D2 | F2 D2 _E2 D2 | D8 :| %21
w: du|hast, O- Her- re,|mild dein|trost mir|wi- der- fah- ren|lahn.|
w: prei-|set Gott im- mer-|dar, und|ruff- et|an de, Na- men|sein.|
V:3
"^3)""^1)" d4 d2 c2 | =B2 c2 A4 | z4 =B4 | c2 d2 c2 =B2 | c2 A2 G4 | d4 d2 c2 | =B2 c2 A4 | %7
w: Ich will, Herr,|prei- sen dich,|und|lob dir sa- gen|je- der- frist,|denn dein grimm|wi- der mich,|
w: Macht kund des|Her- ren Tath,|bey|völ- kern al- er|Na- ti- on,|ver- brei- tet|sei- ne That,|
 z4 =B4 | c2 d2 c2 =B2 | c2 A2 G4 |: z4 G4 | B3 A B/c/ d2 G | d4 d4 |"^-natural" d2 d2 f2 d2 | %14
w: bisz-|her ent- brandt ge-|we- sen ist,|der|hat sich nu _ _ ge-|stilt, dein|Zorn ist end- lich|
w: was|er für wun- der|hat ge- thon|hoch|ist der _ _ Na- me|sein, dar-|ange- denck- et e-|
 (3d3 c B2 c4 | z4 f4 | f2 d2 d2 B2 | A3 G A2 B2 | A4 =B4 | c2 =B2 c2 A2 | G8 :| %21
w: ab- * ge- than,|du|hast, O Her- re,|mild _ _ dein|trost mir|wi- der- fah- ren|lahn.|
w: wer _ _ pflicht,|sin-|get ihm Psal- men|fein, _ _ denn|er hat|grosz ding ausz- ge-|richt.|
V:4
"^4)""^1)""^5)" G,4 B,2 F,2 | G,2 C,2 D,4 | z4 G,4 | F,2 B,,2 F,2 G,2 | C,2 D,2 G,,4 | %5
w: Ich will, Herr,|prei- sen dich,|und|lob dir sa- gen|je- der- frist,|
w: Das brei- tet|rühm- lich aus,|re-|det in al- ler|welt da- von,|
 G,4 B,2 F,2 | G,2 C,2 D,4 | z4 G,4 | F,2 B,,2 F,2 G,2 | C,2 D,2 G,,4 |: z4 G,4 | G,2 G,2 F,2 E,2 | %12
w: denn dein grimm|wi- der mich,|bisz-|her ent- brandt ge-|we- sen ist,|der|hat sich nu ge-|
w: und mach- ets|kund durch- aus|bein|Hei- den al- ler|Na- ti- on,|Du|wö- ner in Si-|
 D,4 D,4 | G,2 B,2 F,2 G,2 | D,2 G,2 F,4 | z4 B,,4 | F,2 G,2 D,2 G,,2 | D,6 G,,2 | D,4 G,4 | %19
w: stilt, dein|Zorn ist end- lich|ab- ge- than,|du|hast, O Her- re,|mild dein|trost mir|
w: on, sag|lob dem heil- gen|Is- ra- el,|jauchts|ihm mit süs- sen|tohn, der|grosz in|
 F,2 G,2 C,2 D,2 | G,,8 :| %21
w: wi- der- fah- ren|lahn.|
w: dir ist oh- ne|fehl.|

